X: 4411
T: GERMAN WALTZ
R: Waltz
%R: waltz
B: James Kerr "Merry Melodies" v.4 p.45 #411
Z: 2016 John Chambers <jc:trillian.mit.edu>
M: 3/4
L: 1/8
K: G
(Bc) |\
d3bba | gGBGed | dFAFed | dGB2(Bc) |\
d3bba | gGBGed | dFAFed | G4 :|
|: (ed) |\
dFAFed | dGBGed | dFAFed | dGB2(Bc) |\
d3bba | gGBGed | dFAdfa | g4 :|

%%sep 1 1 500
%%sep 1 1 500

